X: 50
T: Missa Mi mi / Credo
N: Derived from Ock1010c-Missa_Mi_mi-Credo.krn
C: Johannes Ockeghem
%%abc-version 2.0
%%abcx-abcm2ps-target-version 5.9.1 (29 Sep 2008)
%%abc-creator hum2abc beta
%%abcx-conversion-date 2019/02/17 07:26:15
%%abc-edited-by Jesse Rodin
%%abc-edited-by Will Watson 22/1/2012
%%abcx-initial-encoding-date 2012/01/22/
%%humdrum-veritas 4233232552
%%humdrum-veritas-data 755571349
%%linebreak <none>
%%barnumbers 0
L: 1/4
M: 3/1
Q: 1/2=120
%%staves [1 2 3 4]
V: 1 clef=treble
V: 2 clef=treble-8
V: 3 clef=treble-8
V: 4 clef=bass
K: C
[V:1] E12- | 
[V:2] E6C2C4- | 
[V:3] E12 | 
[V:4] E,6A,,2A,,4 | 
[V:1] E4F8 | 
[V:2] C4z4F4 | 
[V:3] G4A6B2 | 
[V:4] E,4D,8 | 
[V:1] E4z4E4- | 
[V:2] G2A4G2E4 | 
[V:3] c6B2G4 | 
[V:4] C,12 | 
[V:1] E4D4C4 | 
[V:2] c4A8 | 
[V:3] A4F2D2E4 | 
[V:4] A,,4D,4A,,4 | 
[V:1] D6B,2B,4 | 
[V:2] z4D8- | 
[V:3] D2G4FEG4- | 
[V:4] B,,8G,,4- | 
[V:1] B,2B,2A,2D3CA,2 | 
[V:2] D8A4 | 
[V:3] G4F4D4 | 
[V:4] G,,4D,4F,4 | 
[V:1] G,2B,3A,A,4^G,2 | 
[V:2] z12 | 
[V:3] E2F3EE4D2 | 
[V:4] E,2D,2A,,2C,2B,,4 | 
[V:1] A,8z4 | 
[V:2] C8D4 | 
[V:3] E4z4F4 | 
[V:4] A,,8z4 | 
[V:1] D6D2D2D2 | 
[V:2] z2D4D2D4 | 
[V:3] G12 | 
[V:4] G,,6A,,2B,,4 | 
[V:1] C4E3FG3F | 
[V:2] E3FG8 | 
[V:3] A4G3AB2c2 | 
[V:4] A,,2F,,2E,,4E,3F, | 
[V:1] D4z2D2G3E | 
[V:2] z2G2A2F2G4 | 
[V:3] B4A4z2G2 | 
[V:4] G,4F,2D,2E,4 | 
[V:1] F2A3GA4G2- | 
[V:2] F2D2E8 | 
[V:3] A3Bc6B2 | 
[V:4] D,4A,,4C,4 | 
[V:1] GEF3EE4D2 | 
[V:2] z4z4A4 | 
[V:3] G2A4E2F4 | 
[V:4] z4C,4D,4 | 
[V:1] E8z4 | 
[V:2] A8d4 | 
[V:3] E6F2G4 | 
[V:4] A,,8B,,4 | 
[V:1] E3FG2A4^G2 | 
[V:2] cBA3GF2E4 | 
[V:3] A2c4A2B4 | 
[V:4] A,,4z4z4 | 
[V:1] A4G2F3DE2 | 
[V:2] z2E4D2C4 | 
[V:3] A4z4A4 | 
[V:4] A,,4C,2D,2A,,4 | 
[V:1] F2D3EG4F2 | 
[V:2] D4G4E2F2 | 
[V:3] F3G_B4A4 | 
[V:4] D,4G,,4C,2D,2 | 
[V:1] E2C4E2D4 | 
[V:2] C2z2E2C2G4- | 
[V:3] G2A2c2c4B2 | 
[V:4] E,2F,2C,4G,,4 | 
[V:1] C4F6F2 | 
[V:2] G4A6A2 | 
[V:3] c4c6c2 | 
[V:4] C,4F,,6F,,2 | 
[V:1] F4F4A4- | 
[V:2] A4F4C4- | 
[V:3] c4A4F4- | 
[V:4] F,,4F,,8 | 
[V:1] A2G2G4F4- | 
[V:2] C4z2c2A2B2- | 
[V:3] F2EDE4F4 | 
[V:4] F,,4C,4D,4- | 
[V:1] F2E2E4C2D2- | 
[V:2] B2A2c3BG2A2 | 
[V:3] z4G4E2D2 | 
[V:4] D,2C,2C,4z4 | 
[V:1] D2B,2A,2C2B,4 | 
[V:2] B4c2A2E4- | 
[V:3] G4A2A4^G2 | 
[V:4] z12 | 
[V:1] A,4z4A4 | 
[V:2] E2F3DE2F4- | 
[V:3] A12 | 
[V:4] A,,8F,,4- | 
[V:1] A6G4F2 | 
[V:2] F4E4z2F2- | 
[V:3] c12 | 
[V:4] F,,4C,6D,2- | 
[V:1] F2EDC2F3EE2- | 
[V:2] F2G2A3Bc4 | 
[V:3] z2B2A2F2G4 | 
[V:4] D,2E,2F,4C,4 | 
[V:1] E2D2C2D4B,2 | 
[V:2] A4G2F2G4 | 
[V:3] F4E2D2G2G2- | 
[V:4] z12 | 
[V:1] A,4G,4z4 | 
[V:2] D4B4c2A2 | 
[V:3] G2^F2G6E2 | 
[V:4] z4z4C,4 | 
[V:1] z12 | 
[V:2] G3FD2C2G4- | 
[V:3] D2E2F2G3AB2 | 
[V:4] B,,2C,2D,2E,4D,C, | 
[V:1] z4z4C3A, | 
[V:2] G2F2D2E2C4 | 
[V:3] c3BAGG4^F2 | 
[V:4] E,2D,2B,,2C,2A,,4 | 
[V:1] B,3CD2E4DC | 
[V:2] D4z4C4- | 
[V:3] G12 | 
[V:4] G,,8z4 | 
[V:1] E3DB,2C2A,4 | 
[V:2] C4E2C2D4 | 
[V:3] G6E2F4 | 
[V:4] z4z4D,4 | 
[V:1] G,8C2D2 | 
[V:2] z4C3DE4- | 
[V:3] G8A4 | 
[V:4] E,8A,,3B,, | 
[V:1] E4F2F4D2 | 
[V:2] E2C2C4c4 | 
[V:3] A12- | 
[V:4] C,4F,,8 | 
[V:1] C4D6B,2 | 
[V:2] z2c2B2G4FG | 
[V:3] A4G3FD4 | 
[V:4] A,,4B,,8 | 
[V:1] A,4E6D2 | 
[V:2] A4c6A2 | 
[V:3] F4G8 | 
[V:4] z4C,8 | 
[V:1] D6CDC3B, | 
[V:2] A4z4A4 | 
[V:3] F4E8 | 
[V:4] D,4A,,8 | 
[V:1] D8C4 | 
[V:2] G3FEDD3B,C2 | 
[V:3] D4E2G4^F2 | 
[V:4] _B,,6G,,2A,,4 | 
[V:1] B,4C2E4D2 | 
[V:2] D4z4G4 | 
[V:3] G12 | 
[V:4] G,,12- | 
[V:1] D6CDB,3A, | 
[V:2] G6FED2E2 | 
[V:3] z4z4G4 | 
[V:4] G,,12 | 
[V:1] A,8z4 | 
[V:2] F8D2C2 | 
[V:3] A8z4 | 
[V:4] D,6C,D,B,,3A,, | 
[V:1] C6C2C4 | 
[V:2] E8A4 | 
[V:3] A6GAF2E2 | 
[V:4] A,,12 | 
[V:1] C4D6C2 | 
[V:2] A4G6F2 | 
[V:3] E4D8 | 
[V:4] A,,4B,,6A,,2 | 
[V:1] C4z2F4E2 | 
[V:2] A3Bc8- | 
[V:3] A12 | 
[V:4] A,,4F,,8 | 
[V:1] E4C2D3CD2- | 
[V:2] c4F2A2G2B2 | 
[V:3] G4A2F2G4 | 
[V:4] C,4z4z4 | 
[V:1] DCA,2C3B,G,3F, | 
[V:2] A2F2G2F2C4 | 
[V:3] F4E2F4E2 | 
[V:4] z12 | 
[V:1] F,4z4D4 | 
[V:2] z4F8 | 
[V:3] F3GA8- | 
[V:4] z4D,8 | 
[V:1] E4F6ED | 
[V:2] E4D8 | 
[V:3] A12 | 
[V:4] C,4D,8 | 
[V:1] C4E6D2 | 
[V:2] E4C4G4- | 
[V:3] A8D4- | 
[V:4] A,,8G,,4 | 
[V:1] D4C2C4B,2 | 
[V:2] G4A8 | 
[V:3] D4E8 | 
[V:4] B,,4A,,8 | 
[V:1] D2E2F6E2 | 
[V:2] A6B4A2 | 
[V:3] D12 | 
[V:4] z4D,8 | 
[V:1] C6D4C2 | 
[V:2] A8A3B | 
[V:3] z8F4 | 
[V:4] F,12 | 
[V:1] E4z4E4 | 
[V:2] c8z4 | 
[V:3] G12 | 
[V:4] C,12 | 
[V:1] E4F2G4F2 | 
[V:2] c4A2G2c4 | 
[V:3] C4D2E2C4- | 
[V:4] z12 | 
[V:1] E2D3CC4B,2 | 
[V:2] c2B3GG4F2 | 
[V:3] C2G,2C2E2D4 | 
[V:4] z12 | 
[V:1] C4z2B,4A,2 | 
[V:2] G8z4 | 
[V:3] C6G6 | 
[V:4] C,3D,E,6A,,2 | 
[V:1] C2D2F6E2 | 
[V:2] E4C8- | 
[V:3] A4A4A4 | 
[V:4] A,,4A,,3F,,A,,3B,, | 
[V:1] E4A6G2 | 
[V:2] C4c8- | 
[V:3] G4F8 | 
[V:4] C,4F,,8 | 
[V:1] G4F6E2 | 
[V:2] c4A2d4c2 | 
[V:3] E4D4A4 | 
[V:4] C,4D,8 | 
[V:1] E4D2D4B,2 | 
[V:2] B4A4z4 | 
[V:3] G4F8 | 
[V:4] z4D,8 | 
[V:1] C4z4z4 | 
[V:2] A3FG2C4B,2 | 
[V:3] E12- | 
[V:4] A,,4G,,2A,,4G,,2 | 
[V:1] z4z4A,4 | 
[V:2] C4B,2C2A,4 | 
[V:3] E8D4 | 
[V:4] A,,2E,,2G,,2A,,2F,,4 | 
[V:1] G,3A,B,2CA,B,D2C | 
[V:2] z2B,4A,2F3E- | 
[V:3] E3CD2CD2B,A,2 | 
[V:4] E,,4z4z4 | 
[V:1] A,A,2^G,A,2z2=G,2C2 | 
[V:2] EFD2E4z2G2 | 
[V:3] CDB,2A,4E4 | 
[V:4] z12 | 
[V:1] D2E3FG3F/G/A2 | 
[V:2] A2B2c3BG2d2- | 
[V:3] F2E2C3DE2D2 | 
[V:4] z12 | 
[V:1] G2EF2GED/E/FD2C | 
[V:2] d2c3BB4A2 | 
[V:3] G2A2E2G2F4 | 
[V:4] z12 | 
[V:1] E2DC2B,/A,/G,A,2G,F,2 | 
[V:2] B2z2B,3A,C2D2 | 
[V:3] E4E2E2FE2D | 
[V:4] E,,8z4 | 
[V:1] E,12 ||  
[V:2] B,12 ||  
[V:3] E12 ||  
[V:4] E,,12 ||  
[V:1] [M:3/1]z12 | 
[V:2] [M:3/1]z12 | 
[V:3] [M:3/1]z12 | 
[V:4] [M:3/1]B,,6C,2D,4 | 
[V:1] B,6C2D4 | 
[V:2] z12 | 
[V:3] z12 | 
[V:4] E,3F,G,8- | 
[V:1] E4D4G4 | 
[V:2] z12 | 
[V:3] z12 | 
[V:4] G,12 | 
[V:1] F2A4G2F2E2 | 
[V:2] z12 | 
[V:3] z12 | 
[V:4] D,4A,8 | 
[V:1] E6D2D2C2 | 
[V:2] z12 | 
[V:3] z12 | 
[V:4] G,2E,4G,2F,3E, | 
[V:1] E6DCB,3G, | 
[V:2] z12 | 
[V:3] z12 | 
[V:4] C,D,E,F,G,4G,,4 | 
[V:1] A,2G,4G,4G,2 | 
[V:2] z12 | 
[V:3] z12 | 
[V:4] C,4B,,2C,3D,E,2- | 
[V:1] C4B,2D2C2E2- | 
[V:2] z12 | 
[V:3] z12 | 
[V:4] E,2C,2D,2B,,2A,,4 | 
[V:1] EDB,2C2B,2G,4 | 
[V:2] z12 | 
[V:3] z12 | 
[V:4] G,,4z2G,4E,2 | 
[V:1] z2F2E2G4E2 | 
[V:2] z12 | 
[V:3] z12 | 
[V:4] F,2D,2C,2G,,2B,,2C,2 | 
[V:1] F2D2C3B,A,2G,2 | 
[V:2] z12 | 
[V:3] z12 | 
[V:4] D,3E,F,2E,3F,G,2 | 
[V:1] C4D2C2F3D | 
[V:2] z12 | 
[V:3] z12 | 
[V:4] C,2F,4E,2D,2B,,2 | 
[V:1] E2F2G3FD2E2- | 
[V:2] z12 | 
[V:3] z4z4G4 | 
[V:4] A,,4G,,6C,2- | 
[V:1] ECD2ECC4B,2 | 
[V:2] z12 | 
[V:3] A2B2G4F3E | 
[V:4] C,2B,,2C,2E,2D,4 | 
[V:1] C4z4D4- | 
[V:2] z12 | 
[V:3] G8z4 | 
[V:4] C,6_B,,4A,,G,, | 
[V:1] D2C2F6E2 | 
[V:2] z12 | 
[V:3] A8A4 | 
[V:4] F,,8F,4 | 
[V:1] E6D4CD | 
[V:2] z12 | 
[V:3] G4F6ED | 
[V:4] C,4D,8 | 
[V:1] E3FG4FEF/E/D/C/ | 
[V:2] z12 | 
[V:3] C3DEFG2A2F2 | 
[V:4] A,,4z4A,,4 | 
[V:1] !fermata!B,12 ||  
[V:2] z12 ||  
[V:3] !fermata!G12 ||  
[V:4] G,,12 ||  
[V:1] [M:3/1]B,4B,2B,4B,2 | 
[V:2] [M:3/1]G4G4G4 | 
[V:3] [M:3/1]z12 | 
[V:4] [M:3/1]z12 | 
[V:1] C6C2D4 | 
[V:2] A8z4 | 
[V:3] z12 | 
[V:4] z12 | 
[V:1] C4F6E2 | 
[V:2] A8A4 | 
[V:3] z12 | 
[V:4] z12 | 
[V:1] E4z4E4 | 
[V:2] c8c4- | 
[V:3] z12 | 
[V:4] z12 | 
[V:1] G6G2G4 | 
[V:2] c4e2c2B4 | 
[V:3] z12 | 
[V:4] z12 | 
[V:1] A4G2F3DE2 | 
[V:2] A4z4A4 | 
[V:3] z12 | 
[V:4] z12 | 
[V:1] D2C2D2B,2A,4 | 
[V:2] B2A3GG4^F2 | 
[V:3] z12 | 
[V:4] z12 | 
[V:1] G,2D4D2E2G2 | 
[V:2] G4z2d2c2B2 | 
[V:3] z12 | 
[V:4] z12 | 
[V:1] F2A4G2G2^F2 | 
[V:2] d4B2c2A4 | 
[V:3] z12 | 
[V:4] z12 | 
[V:1] G4z4F4 | 
[V:2] G6FED4 | 
[V:3] z12 | 
[V:4] z12 | 
[V:1] E4D6C2 | 
[V:2] C4F6G2 | 
[V:3] z12 | 
[V:4] z12 | 
[V:1] C4D2A,2B,4 | 
[V:2] A4B2A2z2d2 | 
[V:3] z12 | 
[V:4] z12 | 
[V:1] A,4C3B,G,2A,2 | 
[V:2] c2BA2GG4F2 | 
[V:3] z12 | 
[V:4] z12 | 
[V:1] G,4D2E2F2G2- | 
[V:2] G2C2z2G2A2B2 | 
[V:3] z12 | 
[V:4] z12 | 
[V:1] G2E2D4F4 | 
[V:2] c4B2G2F2A2- | 
[V:3] z12 | 
[V:4] z12 | 
[V:1] E2G4C2D4 | 
[V:2] A2G2E4F2D2- | 
[V:3] z12 | 
[V:4] z12 | 
[V:1] F2E2C2D3CC2- | 
[V:2] D2C2F3DE2F2 | 
[V:3] z12 | 
[V:4] z12 | 
[V:1] C2B,2C8 ||  
[V:2] D4C8 ||  
[V:3] z12 ||  
[V:4] z12 ||  
[V:1] [M:2/1]z8 | 
[V:2] [M:2/1]G8 | 
[V:3] [M:2/1]D6E2 | 
[V:4] [M:2/1]B,,8 | 
[V:1] z8 | 
[V:2] A8- | 
[V:3] F8 | 
[V:4] A,,4D,4- | 
[V:1] z8 | 
[V:2] A4G4 | 
[V:3] D4G4- | 
[V:4] D,4B,,4 | 
[V:1] z8 | 
[V:2] c8 | 
[V:3] G4^F4 | 
[V:4] A,,8 | 
[V:1] z4D4- | 
[V:2] B8- | 
[V:3] G8 | 
[V:4] G,,8- | 
[V:1] D2D2D4 | 
[V:2] B8 | 
[V:3] z4G4- | 
[V:4] G,,8 | 
[V:1] E6C2 | 
[V:2] z4c4- | 
[V:3] G4G4- | 
[V:4] C,8- | 
[V:1] C4C4 | 
[V:2] c8- | 
[V:3] G4A4- | 
[V:4] C,4F,4- | 
[V:1] F8 | 
[V:2] c4d4 | 
[V:3] A4B4 | 
[V:4] F,4D,4 | 
[V:1] E4E4 | 
[V:2] G8 | 
[V:3] c6B2 | 
[V:4] C,6D,2 | 
[V:1] E4D2C2 | 
[V:2] G4A4 | 
[V:3] c4A4 | 
[V:4] E,4F,4 | 
[V:1] B,4G4 | 
[V:2] E8- | 
[V:3] G6A2 | 
[V:4] G,8 | 
[V:1] G4A4- | 
[V:2] E4C4 | 
[V:3] B4c4- | 
[V:4] z8 | 
[V:1] A2G2G4 | 
[V:2] F4G4 | 
[V:3] c4G4 | 
[V:4] z8 | 
[V:1] z4F4 | 
[V:2] D8 | 
[V:3] A6B2 | 
[V:4] z8 | 
[V:1] E4A4- | 
[V:2] A4F4 | 
[V:3] c8- | 
[V:4] z8 | 
[V:1] A2G2A4 | 
[V:2] c6e2- | 
[V:3] c8 | 
[V:4] A,,8 | 
[V:1] G2E2F4 | 
[V:2] e2c2d4 | 
[V:3] z8 | 
[V:4] C,4B,,4 | 
[V:1] E4D4 | 
[V:2] c4B4- | 
[V:3] G8- | 
[V:4] C,4z4 | 
[V:1] E4F4 | 
[V:2] B4c4 | 
[V:3] G4A4 | 
[V:4] z8 | 
[V:1] G6E2 | 
[V:2] d2B2c4 | 
[V:3] G4c4- | 
[V:4] z8 | 
[V:1] D8 | 
[V:2] G8 | 
[V:3] c4B4 | 
[V:4] z8 | 
[V:1] C4z4 | 
[V:2] C4D2E2- | 
[V:3] c4z4 | 
[V:4] z4G,,4 | 
[V:1] z8 | 
[V:2] E2C2D4 | 
[V:3] z8 | 
[V:4] A,,4B,,4 | 
[V:1] C4D2E2- | 
[V:2] C2c4B2 | 
[V:3] z4G4 | 
[V:4] C,4z4 | 
[V:1] E2C2D4 | 
[V:2] c2A2G4 | 
[V:3] A4B4 | 
[V:4] z8 | 
[V:1] C4z4 | 
[V:2] C4G4 | 
[V:3] c8 | 
[V:4] z4C,4 | 
[V:1] C4F4- | 
[V:2] z4c4- | 
[V:3] A8- | 
[V:4] F,6F,2 | 
[V:1] F2F2F4 | 
[V:2] c4d4- | 
[V:3] A8 | 
[V:4] F,4D,4- | 
[V:1] F4F4 | 
[V:2] d2c2A4 | 
[V:3] A4A4- | 
[V:4] D,4D,4 | 
[V:1] E8 | 
[V:2] c8 | 
[V:3] A4G4 | 
[V:4] C,8 | 
[V:1] D8 | 
[V:2] z8 | 
[V:3] G6E2 | 
[V:4] B,,6G,,2 | 
[V:1] C4B,4 | 
[V:2] c4d4 | 
[V:3] F2E2G4- | 
[V:4] A,,4G,,4- | 
[V:1] E8 | 
[V:2] B6G2 | 
[V:3] G8 | 
[V:4] G,,8- | 
[V:1] D4C2_B,2- | 
[V:2] G6F2 | 
[V:3] D4G4- | 
[V:4] G,,8- | 
[V:1] B,2A,G,F,4 | 
[V:2] D8 | 
[V:3] G4A4- | 
[V:4] G,,4z4 | 
[V:1] z4F,2G,2 | 
[V:2] z8 | 
[V:3] A4D4 | 
[V:4] D,8 | 
[V:1] A,8 | 
[V:2] z8 | 
[V:3] E4F4- | 
[V:4] C,4D,4- | 
[V:1] A,4A,4 | 
[V:2] z4C4 | 
[V:3] F2E2F4 | 
[V:4] D,2C,2A,,4 | 
[V:1] B,8 | 
[V:2] D4E4 | 
[V:3] G8 | 
[V:4] G,,8 | 
[V:1] A,4D4- | 
[V:2] F8 | 
[V:3] A8 | 
[V:4] F,,8 | 
[V:1] D4C4 | 
[V:2] G4F4 | 
[V:3] B4A4 | 
[V:4] z4F,,4 | 
[V:1] B,8 | 
[V:2] D8 | 
[V:3] G8 | 
[V:4] G,,8 | 
[V:1] A,8 | 
[V:2] F4D4 | 
[V:3] z4F4 | 
[V:4] D,6C,2 | 
[V:1] z8 | 
[V:2] C4E4 | 
[V:3] E4A4- | 
[V:4] A,,4C,4 | 
[V:1] D4D4 | 
[V:2] D2D4C2 | 
[V:3] A4^G4 | 
[V:4] B,,8 | 
[V:1] C4C4 | 
[V:2] E8 | 
[V:3] A8 | 
[V:4] A,,8 | 
[V:1] D4D4 | 
[V:2] z4G4 | 
[V:3] G4B4 | 
[V:4] z8 | 
[V:1] E4F2G2- | 
[V:2] c6B2 | 
[V:3] A6G2 | 
[V:4] z8 | 
[V:1] GFEDF2E2- | 
[V:2] d4c2B2 | 
[V:3] B4A2G2 | 
[V:4] z8 | 
[V:1] E2D4^C2 | 
[V:2] c2A4G2 | 
[V:3] A2F2E3D | 
[V:4] z8 | 
[V:1] D4D4 | 
[V:2] A4G4 | 
[V:3] D4z4 | 
[V:4] z4B,,4 | 
[V:1] E4F4 | 
[V:2] c8 | 
[V:3] G4A4 | 
[V:4] C,4A,,4 | 
[V:1] G8 | 
[V:2] d4e4- | 
[V:3] B4c4- | 
[V:4] G,,4C,4- | 
[V:1] C8 | 
[V:2] e4z4 | 
[V:3] c2A2A4 | 
[V:4] C,4F,,4- | 
[V:1] C4C4 | 
[V:2] A4G4- | 
[V:3] F4z4 | 
[V:4] F,,4C,4- | 
[V:1] C4A,4 | 
[V:2] G4F4- | 
[V:3] E4F4- | 
[V:4] C,4D,4- | 
[V:1] B,4C4 | 
[V:2] F2G2A4 | 
[V:3] F2E2F4 | 
[V:4] D,2C,2A,,4 | 
[V:1] D8 | 
[V:2] B4G4 | 
[V:3] G4B4 | 
[V:4] G,,6E,,2 | 
[V:1] C4B,4 | 
[V:2] c4z4 | 
[V:3] A4G4- | 
[V:4] F,,4G,,4 | 
[V:1] A,8 | 
[V:2] c6BA | 
[V:3] G4^F4 | 
[V:4] A,,8 | 
[V:1] G,8 | 
[V:2] B4B4 | 
[V:3] G8 | 
[V:4] z4E,4- | 
[V:1] z4E4 | 
[V:2] c8- | 
[V:3] C8 | 
[V:4] E,2F,2G,4 | 
[V:1] E4E4- | 
[V:2] c8 | 
[V:3] G4A4 | 
[V:4] C,6B,,A,, | 
[V:1] E4E4- | 
[V:2] z4c4- | 
[V:3] B4G4 | 
[V:4] G,,4C,4- | 
[V:1] E4E4 | 
[V:2] c2B2G4 | 
[V:3] c8 | 
[V:4] C,2D,2E,4 | 
[V:1] A4A4 | 
[V:2] F4f4- | 
[V:3] c4c4- | 
[V:4] F,8 | 
[V:1] A4A4 | 
[V:2] f2e2d2c2 | 
[V:3] c4F4- | 
[V:4] F,4F,4- | 
[V:1] A4G2G2- | 
[V:2] c6G2- | 
[V:3] F4E4 | 
[V:4] F,4C,4- | 
[V:1] G2E2F4 | 
[V:2] G2A2B4 | 
[V:3] C4D4 | 
[V:4] C,4B,,4 | 
[V:1] E4E4 | 
[V:2] G4c4 | 
[V:3] C8 | 
[V:4] C,6B,,A,, | 
[V:1] G4G4 | 
[V:2] B6c2 | 
[V:3] z4E4 | 
[V:4] G,,4z4 | 
[V:1] F4E4 | 
[V:2] d4z4 | 
[V:3] D4C2G2- | 
[V:4] B,,4C,4 | 
[V:1] D6CB, | 
[V:2] G8 | 
[V:3] G2A2B4 | 
[V:4] G,,8 | 
[V:1] A,8 | 
[V:2] F8 | 
[V:3] c8 | 
[V:4] z8 | 
[V:1] A,4A,4 | 
[V:2] z4D4- | 
[V:3] F8 | 
[V:4] z8 | 
[V:1] A,4A,4 | 
[V:2] D2E2F4 | 
[V:3] z4F4 | 
[V:4] z8 | 
[V:1] G,4C4 | 
[V:2] C4G2A2- | 
[V:3] E6F2- | 
[V:4] z8 | 
[V:1] D2C2F4 | 
[V:2] A2G2B2A2 | 
[V:3] F2E2D4 | 
[V:4] z8 | 
[V:1] E6C2 | 
[V:2] c3AG2A2- | 
[V:3] C6F2- | 
[V:4] z8 | 
[V:1] D2B,2A,2G,2- | 
[V:2] A2G2D2E2- | 
[V:3] F2E2F2G2 | 
[V:4] z8 | 
[V:1] G,2C4B,2 | 
[V:2] E2F2G4 | 
[V:3] C4D4 | 
[V:4] z4G,,4 | 
[V:1] C8 | 
[V:2] z8 | 
[V:3] C4C4 | 
[V:4] A,,4C,4 | 
[V:1] z8 | 
[V:2] z8 | 
[V:3] D4F4 | 
[V:4] B,,8 | 
[V:1] z4G,4 | 
[V:2] z8 | 
[V:3] E8 | 
[V:4] C,4C,4 | 
[V:1] A,4C4 | 
[V:2] z8 | 
[V:3] F4A4 | 
[V:4] F,,4F,,4 | 
[V:1] B,8 | 
[V:2] z4G4 | 
[V:3] G4G4 | 
[V:4] G,,8 | 
[V:1] C4C4 | 
[V:2] A4c4 | 
[V:3] C8 | 
[V:4] z4A,,4 | 
[V:1] D4D4 | 
[V:2] B8 | 
[V:3] z4G4 | 
[V:4] G,,4G,,4 | 
[V:1] C4C4 | 
[V:2] c4c4 | 
[V:3] A4c4 | 
[V:4] C,4E,4 | 
[V:1] F4F4 | 
[V:2] d4d4 | 
[V:3] B4B4 | 
[V:4] D,8 | 
[V:1] E4E4 | 
[V:2] G8 | 
[V:3] c6A2 | 
[V:4] C,8 | 
[V:1] D8 | 
[V:2] z8 | 
[V:3] B6G2- | 
[V:4] G,,8 | 
[V:1] G3FG2A2- | 
[V:2] z8 | 
[V:3] G2B4A2 | 
[V:4] z2D,2E,2F,2- | 
[V:1] A2G4^F2 | 
[V:2] z4d4 | 
[V:3] c2G2A4 | 
[V:4] F,2G,2D,4 | 
[V:1] G4z4 | 
[V:2] d6cd | 
[V:3] G6E2 | 
[V:4] G,,8 | 
[V:1] G4G4 | 
[V:2] e2c4Bc | 
[V:3] E4E4 | 
[V:4] C,4E,4 | 
[V:1] A6GF | 
[V:2] d3cA3B | 
[V:3] F6EF | 
[V:4] D,8 | 
[V:1] E8 | 
[V:2] c8- | 
[V:3] G6C2 | 
[V:4] C,8 | 
[V:1] E4G4 | 
[V:2] c8 | 
[V:3] C8 | 
[V:4] G,4E,4 | 
[V:1] F4E2D2- | 
[V:2] z8 | 
[V:3] D4E2F2- | 
[V:4] z2D,2C,2_B,,2- | 
[V:1] D2CB,A,4 | 
[V:2] z4c4- | 
[V:3] F2E2F3G | 
[V:4] B,,2G,,2F,,4- | 
[V:1] A,2A,2A,2A,2 | 
[V:2] c2A2F4 | 
[V:3] ABc4A2 | 
[V:4] F,,8 | 
[V:1] B,4A,2C2- | 
[V:2] E3DF4 | 
[V:3] G4F4- | 
[V:4] z4F,,4- | 
[V:1] C2A,2G,4 | 
[V:2] C4z4 | 
[V:3] F4E4 | 
[V:4] F,,4C,4 | 
[V:1] z2F,2G,2A,2 | 
[V:2] c4z2F2- | 
[V:3] F4E2D2- | 
[V:4] F,,4z4 | 
[V:1] B,2C4D2 | 
[V:2] F2G2A4 | 
[V:3] D2C2F4 | 
[V:4] z4F,,4- | 
[V:1] C2F4E2 | 
[V:2] F4C4 | 
[V:3] A2F2G4 | 
[V:4] F,,4C,4 | 
[V:1] F4z4 | 
[V:2] c8 | 
[V:3] F8 | 
[V:4] F,,8 | 
[V:1] F4F4 | 
[V:2] z4_B4 | 
[V:3] D4D4 | 
[V:4] _B,,4D,4 | 
[V:1] G6E2 | 
[V:2] c8- | 
[V:3] E6C2 | 
[V:4] C,8 | 
[V:1] E8 | 
[V:2] c4B2A2 | 
[V:3] C8 | 
[V:4] G,8 | 
[V:1] E4E4 | 
[V:2] G8 | 
[V:3] z8 | 
[V:4] z8 | 
[V:1] E4E4 | 
[V:2] z4c4- | 
[V:3] C8 | 
[V:4] z8 | 
[V:1] F8 | 
[V:2] c2A2B4 | 
[V:3] D8 | 
[V:4] z8 | 
[V:1] E4D4 | 
[V:2] c4F4 | 
[V:3] C4D4 | 
[V:4] z8 | 
[V:1] C4D4- | 
[V:2] G4A4 | 
[V:3] E4F4 | 
[V:4] z8 | 
[V:1] D4C4 | 
[V:2] z4A4 | 
[V:3] G4A4- | 
[V:4] z8 | 
[V:1] B,8 | 
[V:2] d8 | 
[V:3] A4^G4 | 
[V:4] D,6E,2 | 
[V:1] (3:2:2A,8E4- | 
[V:2] c8- | 
[V:3] A8- | 
[V:4] (3:2:2F,8C,4- | 
[V:1] (3E4F4D4 | 
[V:2] (3:2:2c4A8 | 
[V:3] A8 | 
[V:4] (3:2:2C,4D,8- | 
[V:1] D8 | 
[V:2] (3:2:2B8A4- | 
[V:3] (3:2:2F8E4- | 
[V:4] (3:2:2D,8A,,4- | 
[V:1] (3:2:2B,4^C8 | 
[V:2] A8- | 
[V:3] E8 | 
[V:4] A,,8 | 
[V:1] D8 | 
[V:2] A8- | 
[V:3] D8- | 
[V:4] F,8- | 
[V:1] (3:2:2z4D8- | 
[V:2] (3A4z4z4 | 
[V:3] D8 | 
[V:4] F,8 | 
[V:1] (3D4E4F4- | 
[V:2] (3z4z4A4- | 
[V:3] (3B,6C2D4- | 
[V:4] D,8- | 
[V:1] (3:2:5F2E FG6E2 | 
[V:2] (3A2B2c8- | 
[V:3] (3:2:2D4C8 | 
[V:4] (3D,4E,4C,4 | 
[V:1] (3:2:4F6E2D2C2 | 
[V:2] (3:2:2c4_B8 | 
[V:3] (3:2:2z4F8 | 
[V:4] (3:2:2A,,4_B,,8 | 
[V:1] (3:2:2C8B,4 | 
[V:2] (3:2:2G4G8- | 
[V:3] (3:2:2E4D8 | 
[V:4] (3:2:2C,4G,,8 | 
[V:1] (3:2:2C8z4 | 
[V:2] (3:2:2G8c4- | 
[V:3] C8- | 
[V:4] (3:2:2z4C,8 | 
[V:1] (3:2:2z4G8 | 
[V:2] (3:2:2c4B8 | 
[V:3] (3:2:2C4E8 | 
[V:4] (3:2:2A,,4G,,8 | 
[V:1] (3:2:2A8G4 | 
[V:2] (3:2:2A8c4- | 
[V:3] (3:2:2F8C4- | 
[V:4] (3:2:2F,,8z4 | 
[V:1] (3:2:2E8G4 | 
[V:2] (3:2:5c2B2G2c4A2 | 
[V:3] (3:2:2C4E8 | 
[V:4] (3:2:2C,4C,8 | 
[V:1] (3:2:2F4E8 | 
[V:2] (3:2:2B4c8 | 
[V:3] (3D4G4A4 | 
[V:4] (3D,4C,4A,,4- | 
[V:1] (3:2:2C4B,8 | 
[V:2] (3:2:2A4E8 | 
[V:3] (3:2:2A8G4 | 
[V:4] (3A,,4z4E,4 | 
[V:1] (3A,4C6B,2 | 
[V:2] (3z4z4c4- | 
[V:3] (3:2:4A6G FE4- | 
[V:4] (3F,6E,2C,4- | 
[V:1] (3:2:2G,8C4- | 
[V:2] (3:2:4c2B2G4A4 | 
[V:3] (3:2:5E2D CB,4A,4 | 
[V:4] (3C,4D,4E,4- | 
[V:1] (3:2:4C2D2E6F2 | 
[V:2] (3:2:2G4c8- | 
[V:3] (3C6D2E4 | 
[V:4] (3:2:4E,2F,2G,4C,4- | 
[V:1] (3G6F2D4 | 
[V:2] (3c4B4d4- | 
[V:3] (3:2:4E2F2G6F2 | 
[V:4] (3:2:4C,2A,,2G,,4_B,,4- | 
[V:1] (3:2:4A6G2F2E2 | 
[V:2] (3d4c4c4- | 
[V:3] (3:2:2D4A8 | 
[V:4] (3B,,2A,,2F,,8 | 
[V:1] (3:2:2E8D4 | 
[V:2] (3:2:2c4A8- | 
[V:3] (3:2:2G4F8 | 
[V:4] (3:2:2C,4D,8 | 
[V:1] E8- | 
[V:2] (3A4B4c4- | 
[V:3] E8- | 
[V:4] (3A,,6G,,2A,,4- | 
[V:1] E8- | 
[V:2] (3:2:2c8B4 | 
[V:3] E8- | 
[V:4] (3:2:2A,,4E,,8- | 
[V:1] E8 |]  
[V:2] (3:2:2B8B4 |]  
[V:3] E8 |]  
[V:4] E,,8 |]  



